!!!OTL: GRUENES GRAS UNTER MEINEN FUESSEN
!!!ARE: Europa, Mitteleuropa, Deutschland
!!!SCT: E1885
!!!YEM: Copyright 1995, estate of Helmut Schaffrath.
**kern
*ICvox
*Ivox
*M2/4
*k[f#]
*G:
=1
{8dd
8b
4b
=2
8dd
8b
4b}
=3
{8ee
8dd
8cc
8b
=4
4a
8g
8r}
=5
{8dd
8dd
8b
8ee
=6
8dd
8dd
8b
8r}
=7
{8ee
8dd
8cc
8a
=8
4a
8g
8r}
==
!!!AGN: Kinder - Lied, Spiel
!!!ONB: ESAC (Essen Associative Code) Database: ERK3
!!!AMT: simple duple
!!!AIN: vox
!!!EED: Helmut Schaffrath
!!!EEV: 1.0
*-
